X:667
T:Reel Of Sceach\'og, The
T:Siobhan O'Donnell's
R:reel
C:John Brady
H:Often misattributed to Siobhan O'Donnell
D:Dervish: Harmony Hill
Z:id:hn-reel-667
M:C|
K:A
ABce a2ae | ~f3a fece | f2fe cBAF | EFAB cBAF |
E2EA ~c3e | ~f3a fece | f2ec dBcA | ~B2AB cAAB :|
|: ABce fece | fA~A2 fAeA | fA~A2 fAeA | aAfA eAce |
~f3e cBAF | ~E3F ~A3e | f2ec dBcA | ~B2AB cAAB :|
P:variations
|: A2ce a2ba | ~f3e fece | f2fe cBAF | EFAB cBAF |
~E3F ABce | f2af fece | fdec d2cA | BcAB cAAB :|
|: ABce fece | fA~A2 fAeA | fA~A2 f2ef | a2fa eAce |
~f3e cBAF | ~E3F ABce | fdec d2cA | BcAB cAAB :|

